dist/assets/images/icon-2.svg

<svg width="140" height="140" viewBox="0 0 140 140" fill="none" xmlns="http://www.w3.org/2000/svg">
<g clip-path="url(#clip0_977_1159)">
<path fill-rule="evenodd" clip-rule="evenodd" d="M124.622 27.8373C118.247 19.4908 112.796 15.9852 103.786 22.8466L97.2993 27.7862C95.742 28.9675 90.0467 29.3629 84.5264 29.7461L84.4907 29.7485C84.2779 29.7625 84.0646 29.7782 83.8511 29.7939C83.6334 29.8099 83.4155 29.826 83.1975 29.8402L75.7466 30.7001C74.5082 30.9379 73.3139 31.2126 72.2323 31.5984L55.6715 37.5897C55.0081 37.6913 54.3905 37.7754 53.8256 37.8524L53.672 37.8733L53.6597 37.875C49.5378 38.4432 47.0543 38.7855 45.7448 42.0853C44.8183 44.4706 45.5141 47.4352 47.5891 49.8205C51.0294 53.7947 56.9556 55.2621 63.2516 53.7841L72.6004 52.5898C76.3996 52.0902 79.6701 54.7135 82.832 57.2497L82.8777 57.2864L110.612 79.0227L113.935 77.1688C119.045 74.9316 124.651 71.7396 129.303 65.8118L133.89 62.3096C137.588 59.4911 139.506 56.7677 139.918 53.7306C140.47 49.6103 138.194 45.629 134.597 40.9132L124.622 27.8373ZM59.161 115.442L61.6646 112.735C63.2887 110.69 63.7099 107.845 62.7286 105.12C61.6909 102.322 59.2969 100.053 56.4695 99.1814C56.1643 99.089 55.861 99.0294 55.5561 98.9696L55.4776 98.9541C56.0555 97.138 56.0291 95.1104 55.3315 93.1462C54.2217 90.0459 51.5794 87.5303 48.4314 86.5948C47.0819 86.1913 45.7166 86.1105 44.4238 86.2919C44.5346 84.9988 44.3869 83.6407 43.9181 82.3283C42.817 79.2085 40.166 76.6966 37.0004 75.7682C35.6599 75.3648 34.3032 75.2821 32.9999 75.4654C33.1179 74.1723 32.9717 72.8231 32.4942 71.5018C31.4039 68.382 28.7508 65.8787 25.5852 64.9417C22.365 63.978 19.0532 64.7655 16.8599 66.9604L14.2291 69.725L11.2186 72.903C9.02715 75.2037 8.3843 78.6248 9.53096 81.8292C10.6321 84.9403 13.2831 87.4522 16.4487 88.3982C17.3576 88.6624 18.2754 88.7927 19.165 88.7927C19.5516 88.7927 19.9233 88.7438 20.2943 88.695L20.4492 88.6748C20.3293 89.9766 20.4774 91.3347 20.9443 92.6665C22.0541 95.7653 24.7054 98.2825 27.8621 99.2266C28.7709 99.4926 29.6872 99.6211 30.5874 99.6211C30.977 99.6211 31.3651 99.5694 31.7414 99.5193L31.8628 99.5032C31.7449 100.805 31.891 102.165 32.358 103.504C33.4697 106.606 36.1206 109.111 39.2863 110.053C40.1951 110.321 41.1024 110.448 42.0026 110.448C42.5541 110.448 43.1037 110.397 43.6357 110.294C43.7184 110.934 43.8559 111.579 44.0956 112.209C45.1137 115.01 47.5166 117.286 50.3528 118.148C51.2143 118.414 52.0773 118.544 52.9319 118.544C55.0054 118.544 56.959 117.764 58.3435 116.296H58.354V116.288L59.161 115.442ZM12.9802 80.5958C12.3021 78.6967 12.6421 76.7149 13.8717 75.4202L20.0005 68.9623C20.6241 68.3194 22.5988 67.8683 24.5524 68.4461C26.6169 69.0626 28.3327 70.692 29.0481 72.7234C29.7281 74.633 29.3862 76.6235 28.1674 77.899V77.9095L22.021 84.3674C21.415 85.0103 19.4332 85.4509 17.4882 84.8818C15.4219 84.2668 13.6971 82.6321 12.9802 80.5958ZM24.3954 91.4403C23.726 89.5235 24.0641 87.5296 25.2851 86.2384L30.8184 80.4304C32.048 79.1373 34.0122 78.706 35.9658 79.2853C38.0303 79.8913 39.7461 81.5245 40.4719 83.5518C41.1519 85.4596 40.8033 87.4395 39.5823 88.7432L34.058 94.5511C32.8284 95.8353 30.8571 96.2846 28.9019 95.7068C26.8458 95.0936 25.1194 93.4503 24.3954 91.4403ZM35.8088 102.269C35.1378 100.349 35.4865 98.3686 36.7071 97.0755L42.2314 91.2675V91.2551C43.4611 89.9725 45.4323 89.5254 47.3875 90.1119C49.4344 90.7179 51.1678 92.3597 51.885 94.3783C52.5631 96.2861 52.2231 98.2785 51.0043 99.5679L45.4534 105.388C44.2343 106.664 42.2683 107.102 40.3255 106.535C38.2681 105.919 36.5346 104.286 35.8088 102.269ZM47.5355 110.947C47.2613 110.213 47.2046 109.489 47.2785 108.792L48.1152 107.911C48.1152 107.909 48.1167 107.905 48.1167 107.905L48.1179 107.903C48.1205 107.901 48.1239 107.901 48.1239 107.901V107.89L53.2168 102.553C53.9055 102.442 54.6295 102.461 55.3906 102.69C57.1523 103.233 58.6479 104.652 59.2908 106.388C59.8686 107.991 59.6112 109.647 58.6303 110.691L55.6938 113.762C54.7019 114.81 53.0707 115.159 51.427 114.643C49.6567 114.103 48.161 112.689 47.5269 110.947H47.5355ZM110.816 74.511L110.806 74.5197L85.1707 54.4391C81.7567 51.6856 77.4831 48.2893 72.1332 48.9621L62.61 50.1918C55.0051 51.9621 51.3075 48.5218 50.3528 47.4297C49.1972 46.0907 48.7286 44.5229 49.1603 43.4292C49.6288 42.2454 50.0958 42.071 54.1703 41.5019C54.8484 41.4102 55.5829 41.3099 56.4004 41.1901C56.4288 41.1833 56.4573 41.177 56.4858 41.1707C56.5755 41.151 56.6645 41.1313 56.7475 41.0965L73.4827 35.0508C76.4931 33.9673 80.6859 33.675 84.7412 33.3985C90.1088 33.0303 95.6244 32.6339 99.588 30.462L125.654 64.4274C121.166 69.7213 115.888 72.4308 110.816 74.511ZM131.669 59.3843L128.337 61.9244L102.576 28.3641L105.998 25.7657C112.247 21.0041 115.485 21.8956 121.705 30.0693L131.679 43.1245C135.285 47.8508 136.615 50.777 136.284 53.2255C136.009 55.2445 134.542 57.1981 131.669 59.3843Z" fill="#E91609"/>
<path fill-rule="evenodd" clip-rule="evenodd" d="M124.622 27.8373C118.247 19.4908 112.796 15.9852 103.786 22.8466L97.2993 27.7862C95.742 28.9675 90.0467 29.3629 84.5264 29.7461L84.4907 29.7485C84.2779 29.7625 84.0646 29.7782 83.8511 29.7939C83.6334 29.8099 83.4155 29.826 83.1975 29.8402L75.7466 30.7001C74.5082 30.9379 73.3139 31.2126 72.2323 31.5984L55.6715 37.5897C55.0081 37.6913 54.3905 37.7754 53.8256 37.8524L53.672 37.8733L53.6597 37.875C49.5378 38.4432 47.0543 38.7855 45.7448 42.0853C44.8183 44.4706 45.5141 47.4352 47.5891 49.8205C51.0294 53.7947 56.9556 55.2621 63.2516 53.7841L72.6004 52.5898C76.3996 52.0902 79.6701 54.7135 82.832 57.2497L82.8777 57.2864L110.612 79.0227L113.935 77.1688C119.045 74.9316 124.651 71.7396 129.303 65.8118L133.89 62.3096C137.588 59.4911 139.506 56.7677 139.918 53.7306C140.47 49.6103 138.194 45.629 134.597 40.9132L124.622 27.8373ZM59.161 115.442L61.6646 112.735C63.2887 110.69 63.7099 107.845 62.7286 105.12C61.6909 102.322 59.2969 100.053 56.4695 99.1814C56.1643 99.089 55.861 99.0294 55.5561 98.9696L55.4776 98.9541C56.0555 97.138 56.0291 95.1104 55.3315 93.1462C54.2217 90.0459 51.5794 87.5303 48.4314 86.5948C47.0819 86.1913 45.7166 86.1105 44.4238 86.2919C44.5346 84.9988 44.3869 83.6407 43.9181 82.3283C42.817 79.2085 40.166 76.6966 37.0004 75.7682C35.6599 75.3648 34.3032 75.2821 32.9999 75.4654C33.1179 74.1723 32.9717 72.8231 32.4942 71.5018C31.4039 68.382 28.7508 65.8787 25.5852 64.9417C22.365 63.978 19.0532 64.7655 16.8599 66.9604L14.2291 69.725L11.2186 72.903C9.02715 75.2037 8.3843 78.6248 9.53096 81.8292C10.6321 84.9403 13.2831 87.4522 16.4487 88.3982C17.3576 88.6624 18.2754 88.7927 19.165 88.7927C19.5516 88.7927 19.9233 88.7438 20.2943 88.695L20.4492 88.6748C20.3293 89.9766 20.4774 91.3347 20.9443 92.6665C22.0541 95.7653 24.7054 98.2825 27.8621 99.2266C28.7709 99.4926 29.6872 99.6211 30.5874 99.6211C30.977 99.6211 31.3651 99.5694 31.7414 99.5193L31.8628 99.5032C31.7449 100.805 31.891 102.165 32.358 103.504C33.4697 106.606 36.1206 109.111 39.2863 110.053C40.1951 110.321 41.1024 110.448 42.0026 110.448C42.5541 110.448 43.1037 110.397 43.6357 110.294C43.7184 110.934 43.8559 111.579 44.0956 112.209C45.1137 115.01 47.5166 117.286 50.3528 118.148C51.2143 118.414 52.0773 118.544 52.9319 118.544C55.0054 118.544 56.959 117.764 58.3435 116.296H58.354V116.288L59.161 115.442ZM12.9802 80.5958C12.3021 78.6967 12.6421 76.7149 13.8717 75.4202L20.0005 68.9623C20.6241 68.3194 22.5988 67.8683 24.5524 68.4461C26.6169 69.0626 28.3327 70.692 29.0481 72.7234C29.7281 74.633 29.3862 76.6235 28.1674 77.899V77.9095L22.021 84.3674C21.415 85.0103 19.4332 85.4509 17.4882 84.8818C15.4219 84.2668 13.6971 82.6321 12.9802 80.5958ZM24.3954 91.4403C23.726 89.5235 24.0641 87.5296 25.2851 86.2384L30.8184 80.4304C32.048 79.1373 34.0122 78.706 35.9658 79.2853C38.0303 79.8913 39.7461 81.5245 40.4719 83.5518C41.1519 85.4596 40.8033 87.4395 39.5823 88.7432L34.058 94.5511C32.8284 95.8353 30.8571 96.2846 28.9019 95.7068C26.8458 95.0936 25.1194 93.4503 24.3954 91.4403ZM35.8088 102.269C35.1378 100.349 35.4865 98.3686 36.7071 97.0755L42.2314 91.2675V91.2551C43.4611 89.9725 45.4323 89.5254 47.3875 90.1119C49.4344 90.7179 51.1678 92.3597 51.885 94.3783C52.5631 96.2861 52.2231 98.2785 51.0043 99.5679L45.4534 105.388C44.2343 106.664 42.2683 107.102 40.3255 106.535C38.2681 105.919 36.5346 104.286 35.8088 102.269ZM47.5355 110.947C47.2613 110.213 47.2046 109.489 47.2785 108.792L48.1152 107.911C48.1152 107.909 48.1167 107.905 48.1167 107.905L48.1179 107.903C48.1205 107.901 48.1239 107.901 48.1239 107.901V107.89L53.2168 102.553C53.9055 102.442 54.6295 102.461 55.3906 102.69C57.1523 103.233 58.6479 104.652 59.2908 106.388C59.8686 107.991 59.6112 109.647 58.6303 110.691L55.6938 113.762C54.7019 114.81 53.0707 115.159 51.427 114.643C49.6567 114.103 48.161 112.689 47.5269 110.947H47.5355ZM110.816 74.511L110.806 74.5197L85.1707 54.4391C81.7567 51.6856 77.4831 48.2893 72.1332 48.9621L62.61 50.1918C55.0051 51.9621 51.3075 48.5218 50.3528 47.4297C49.1972 46.0907 48.7286 44.5229 49.1603 43.4292C49.6288 42.2454 50.0958 42.071 54.1703 41.5019C54.8484 41.4102 55.5829 41.3099 56.4004 41.1901C56.4288 41.1833 56.4573 41.177 56.4858 41.1707C56.5755 41.151 56.6645 41.1313 56.7475 41.0965L73.4827 35.0508C76.4931 33.9673 80.6859 33.675 84.7412 33.3985C90.1088 33.0303 95.6244 32.6339 99.588 30.462L125.654 64.4274C121.166 69.7213 115.888 72.4308 110.816 74.511ZM131.669 59.3843L128.337 61.9244L102.576 28.3641L105.998 25.7657C112.247 21.0041 115.485 21.8956 121.705 30.0693L131.679 43.1245C135.285 47.8508 136.615 50.777 136.284 53.2255C136.009 55.2445 134.542 57.1981 131.669 59.3843Z" fill="#E91609"/>
<path fill-rule="evenodd" clip-rule="evenodd" d="M83.1975 29.8402L81.4817 29.1144C74.7842 26.2624 71.7384 24.9674 64.0031 25.6016C62.4424 25.7391 60.6913 25.924 58.847 26.1159C53.8194 26.6479 44.9548 27.5658 41.8369 27.2171C41.7347 27.0796 41.6344 26.9334 41.4882 26.8136L36.6068 22.9983C27.6967 16.0152 22.1916 19.4469 15.6966 27.7141L5.55837 40.6426C2.39305 44.6765 -0.460753 49.0101 0.0622586 53.3754C0.439112 56.4317 2.31006 59.1852 4.14385 60.6155L11.118 66.0766C12.5501 67.2146 13.5296 68.3965 14.2291 69.725L16.8599 66.9604C16.2186 65.9614 15.4206 65.021 14.4483 64.1347L40.6692 30.7088C43.523 31.2321 49.1197 30.811 59.2313 29.7541C61.0564 29.5708 62.7986 29.3878 64.3242 29.2416C69.433 28.8171 71.966 29.2503 75.7466 30.7001L83.1975 29.8402ZM34.3503 25.875C28.1739 21.0428 24.9274 21.8848 18.5785 29.9777L8.44066 42.9046C4.77834 47.5659 3.40253 50.4742 3.70538 52.9335C3.94505 54.9488 5.38403 56.9343 6.80753 58.0528L11.6236 61.8154L37.7361 28.5263L34.3503 25.875Z" fill="white"/>
<path d="M59.161 115.442L64.7119 119.774C65.3532 120.279 66.9421 120.792 68.582 120.792C69.794 120.792 71.05 120.508 72.2428 119.937C74.9309 118.655 76.9781 116.05 77.5735 113.15C77.637 112.819 77.6844 112.479 77.711 112.141C78.3084 112.269 78.9035 112.352 79.5272 112.352C80.8485 112.352 82.1977 112.058 83.4908 111.461C86.4821 110.067 88.7386 107.194 89.3622 103.965C89.4997 103.25 89.5455 102.542 89.5279 101.846C90.3646 102.119 91.2524 102.258 92.1525 102.258C93.4738 102.258 94.832 101.964 96.1248 101.368C99.1056 99.9819 101.355 97.1015 101.996 93.8708C102.107 93.3106 102.153 92.7523 102.162 92.2027C103.346 92.8087 104.658 93.1258 106.008 93.1258C107.338 93.1258 108.687 92.8316 109.971 92.2361C112.952 90.8532 115.21 87.9802 115.853 84.7421C116.405 81.9165 115.67 79.1348 113.935 77.1688L110.612 79.0227C112.016 80.1168 112.649 82.0351 112.265 84.0135C111.843 86.1291 110.376 87.9997 108.429 88.8983C106.585 89.7617 104.575 89.6065 103.868 89.0569L89.6839 77.964C88.8859 77.3404 87.739 77.4865 87.1156 78.2758C86.492 79.0738 86.6295 80.2295 87.4275 80.855L96.7587 88.1586C98.1627 89.2597 98.795 91.1675 98.411 93.1493C97.9899 95.2596 96.5209 97.1306 94.5849 98.0394C92.7316 98.8903 90.7129 98.7457 89.3195 97.6449L79.9777 90.3413C79.1797 89.7177 78.0328 89.8638 77.4094 90.655C76.7858 91.4496 76.9319 92.6087 77.7213 93.2233L84.1442 98.2599C85.5376 99.361 86.1628 101.269 85.7773 103.251C85.3651 105.349 83.8977 107.225 81.9512 108.132C80.0979 108.985 78.0792 108.837 76.6858 107.736H76.6752L70.2805 102.717C69.4825 102.093 68.3269 102.239 67.7014 103.029C67.0777 103.827 67.2239 104.974 68.015 105.599L73.9236 110.223C74.0998 110.912 74.1438 111.636 73.9886 112.393C73.6118 114.202 72.345 115.827 70.675 116.625C69.1249 117.359 67.4654 117.268 66.3169 116.376L61.6646 112.735L59.161 115.442Z" fill="white"/>
</g>
<defs>
<clipPath id="clip0_977_1159">
<rect width="140" height="140" fill="white"/>
</clipPath>
</defs>
</svg>

<svg width="140" height="140" fill="none" xmlns="http://www.w3.org/2000/svg"><g clip-path="url(#clip0_977_1159)"><path fill-rule="evenodd" clip-rule="evenodd" d="M124.622 27.837c-6.375-8.346-11.826-11.852-20.836-4.99l-6.487 4.94c-1.557 1.18-7.252 1.576-12.773 1.96l-.035.002-.64.045c-.218.016-.436.032-.653.046l-7.451.86c-1.239.238-2.433.513-3.515.898l-16.56 5.992c-.664.101-1.281.185-1.846.262l-.154.021-.012.002c-4.122.568-6.606.91-7.915 4.21-.927 2.386-.23 5.35 1.844 7.736 3.44 3.974 9.367 5.441 15.663 3.963L72.6 52.59c3.8-.5 7.07 2.123 10.232 4.66l.046.036 27.734 21.737 3.323-1.854c5.11-2.237 10.716-5.43 15.368-11.357l4.587-3.502c3.698-2.819 5.616-5.542 6.028-8.58.552-4.12-1.724-8.101-5.321-12.817l-9.975-13.076zm-65.461 87.605l2.504-2.707c1.624-2.045 2.045-4.89 1.064-7.615-1.038-2.798-3.432-5.067-6.26-5.939a9.253 9.253 0 00-.913-.211l-.078-.016c.578-1.816.551-3.844-.147-5.808-1.11-3.1-3.752-5.616-6.9-6.551a9.405 9.405 0 00-4.007-.303 9.4 9.4 0 00-.506-3.964c-1.101-3.12-3.752-5.631-6.918-6.56a9.322 9.322 0 00-4-.303 9.17 9.17 0 00-.506-3.963c-1.09-3.12-3.743-5.623-6.909-6.56-3.22-.964-6.532-.176-8.725 2.018l-2.63 2.765-3.011 3.178c-2.192 2.3-2.835 5.722-1.688 8.926 1.101 3.111 3.752 5.623 6.918 6.57a9.754 9.754 0 002.716.394c.387 0 .758-.05 1.13-.098l.154-.02a9.425 9.425 0 00.495 3.992c1.11 3.098 3.761 5.615 6.918 6.56a9.694 9.694 0 002.725.394c.39 0 .778-.052 1.154-.102l.122-.016a9.51 9.51 0 00.495 4.001c1.112 3.102 3.763 5.607 6.928 6.549a9.562 9.562 0 002.717.395c.551 0 1.1-.051 1.633-.154.082.64.22 1.285.46 1.915 1.018 2.801 3.42 5.077 6.257 5.939a8.714 8.714 0 002.579.396c2.073 0 4.027-.78 5.411-2.248h.011v-.008l.807-.846zm-46.18-34.846c-.679-1.9-.339-3.881.89-5.176l6.13-6.458c.623-.643 2.598-1.094 4.551-.516 2.065.617 3.78 2.246 4.496 4.277.68 1.91.338 3.9-.88 5.176v.01l-6.147 6.458c-.606.643-2.588 1.084-4.533.515-2.066-.615-3.79-2.25-4.508-4.286zM24.394 91.44c-.669-1.916-.33-3.91.89-5.202l5.533-5.808c1.23-1.293 3.194-1.724 5.148-1.145 2.064.606 3.78 2.24 4.506 4.267.68 1.908.331 3.887-.89 5.191l-5.524 5.808c-1.23 1.284-3.2 1.734-5.156 1.156-2.056-.613-3.783-2.257-4.507-4.267zm11.416 10.83c-.671-1.92-.322-3.9.898-5.194l5.524-5.808v-.012c1.23-1.282 3.201-1.73 5.157-1.143 2.046.606 3.78 2.248 4.497 4.266.678 1.908.338 3.9-.88 5.19l-5.552 5.82c-1.219 1.276-3.185 1.714-5.128 1.147-2.057-.616-3.79-2.249-4.516-4.266zm11.727 8.678a4.661 4.661 0 01-.258-2.155l.837-.881.002-.006v-.002l.007-.002v-.011l5.093-5.337a4.782 4.782 0 012.174.137c1.761.543 3.257 1.962 3.9 3.698.578 1.603.32 3.259-.66 4.303l-2.937 3.071c-.992 1.048-2.623 1.397-4.267.881-1.77-.54-3.266-1.954-3.9-3.696h.008zm63.28-36.436l-.01.009-25.635-20.08c-3.414-2.754-7.688-6.15-13.038-5.478l-9.523 1.23c-7.605 1.77-11.303-1.67-12.257-2.762-1.156-1.34-1.624-2.907-1.193-4 .469-1.185.936-1.359 5.01-1.928.678-.092 1.413-.192 2.23-.312l.086-.02c.09-.019.178-.039.262-.074l16.735-6.045c3.01-1.084 7.203-1.376 11.258-1.653 5.368-.368 10.883-.764 14.847-2.936l26.066 33.965c-4.488 5.294-9.766 8.004-14.838 10.084zm20.853-15.127l-3.332 2.54-25.761-33.56 3.422-2.598c6.249-4.762 9.487-3.87 15.707 4.303l9.974 13.055c3.606 4.727 4.936 7.653 4.605 10.101-.275 2.02-1.742 3.973-4.615 6.16z" fill="#E91609"/><path fill-rule="evenodd" clip-rule="evenodd" d="M124.622 27.837c-6.375-8.346-11.826-11.852-20.836-4.99l-6.487 4.94c-1.557 1.18-7.252 1.576-12.773 1.96l-.035.002-.64.045c-.218.016-.436.032-.653.046l-7.451.86c-1.239.238-2.433.513-3.515.898l-16.56 5.992c-.664.101-1.281.185-1.846.262l-.154.021-.012.002c-4.122.568-6.606.91-7.915 4.21-.927 2.386-.23 5.35 1.844 7.736 3.44 3.974 9.367 5.441 15.663 3.963L72.6 52.59c3.8-.5 7.07 2.123 10.232 4.66l.046.036 27.734 21.737 3.323-1.854c5.11-2.237 10.716-5.43 15.368-11.357l4.587-3.502c3.698-2.819 5.616-5.542 6.028-8.58.552-4.12-1.724-8.101-5.321-12.817l-9.975-13.076zm-65.461 87.605l2.504-2.707c1.624-2.045 2.045-4.89 1.064-7.615-1.038-2.798-3.432-5.067-6.26-5.939a9.253 9.253 0 00-.913-.211l-.078-.016c.578-1.816.551-3.844-.147-5.808-1.11-3.1-3.752-5.616-6.9-6.551a9.405 9.405 0 00-4.007-.303 9.4 9.4 0 00-.506-3.964c-1.101-3.12-3.752-5.631-6.918-6.56a9.322 9.322 0 00-4-.303 9.17 9.17 0 00-.506-3.963c-1.09-3.12-3.743-5.623-6.909-6.56-3.22-.964-6.532-.176-8.725 2.018l-2.63 2.765-3.011 3.178c-2.192 2.3-2.835 5.722-1.688 8.926 1.101 3.111 3.752 5.623 6.918 6.57a9.754 9.754 0 002.716.394c.387 0 .758-.05 1.13-.098l.154-.02a9.425 9.425 0 00.495 3.992c1.11 3.098 3.761 5.615 6.918 6.56a9.694 9.694 0 002.725.394c.39 0 .778-.052 1.154-.102l.122-.016a9.51 9.51 0 00.495 4.001c1.112 3.102 3.763 5.607 6.928 6.549a9.562 9.562 0 002.717.395c.551 0 1.1-.051 1.633-.154.082.64.22 1.285.46 1.915 1.018 2.801 3.42 5.077 6.257 5.939a8.714 8.714 0 002.579.396c2.073 0 4.027-.78 5.411-2.248h.011v-.008l.807-.846zm-46.18-34.846c-.679-1.9-.339-3.881.89-5.176l6.13-6.458c.623-.643 2.598-1.094 4.551-.516 2.065.617 3.78 2.246 4.496 4.277.68 1.91.338 3.9-.88 5.176v.01l-6.147 6.458c-.606.643-2.588 1.084-4.533.515-2.066-.615-3.79-2.25-4.508-4.286zM24.394 91.44c-.669-1.916-.33-3.91.89-5.202l5.533-5.808c1.23-1.293 3.194-1.724 5.148-1.145 2.064.606 3.78 2.24 4.506 4.267.68 1.908.331 3.887-.89 5.191l-5.524 5.808c-1.23 1.284-3.2 1.734-5.156 1.156-2.056-.613-3.783-2.257-4.507-4.267zm11.416 10.83c-.671-1.92-.322-3.9.898-5.194l5.524-5.808v-.012c1.23-1.282 3.201-1.73 5.157-1.143 2.046.606 3.78 2.248 4.497 4.266.678 1.908.338 3.9-.88 5.19l-5.552 5.82c-1.219 1.276-3.185 1.714-5.128 1.147-2.057-.616-3.79-2.249-4.516-4.266zm11.727 8.678a4.661 4.661 0 01-.258-2.155l.837-.881.002-.006v-.002l.007-.002v-.011l5.093-5.337a4.782 4.782 0 012.174.137c1.761.543 3.257 1.962 3.9 3.698.578 1.603.32 3.259-.66 4.303l-2.937 3.071c-.992 1.048-2.623 1.397-4.267.881-1.77-.54-3.266-1.954-3.9-3.696h.008zm63.28-36.436l-.01.009-25.635-20.08c-3.414-2.754-7.688-6.15-13.038-5.478l-9.523 1.23c-7.605 1.77-11.303-1.67-12.257-2.762-1.156-1.34-1.624-2.907-1.193-4 .469-1.185.936-1.359 5.01-1.928.678-.092 1.413-.192 2.23-.312l.086-.02c.09-.019.178-.039.262-.074l16.735-6.045c3.01-1.084 7.203-1.376 11.258-1.653 5.368-.368 10.883-.764 14.847-2.936l26.066 33.965c-4.488 5.294-9.766 8.004-14.838 10.084zm20.853-15.127l-3.332 2.54-25.761-33.56 3.422-2.598c6.249-4.762 9.487-3.87 15.707 4.303l9.974 13.055c3.606 4.727 4.936 7.653 4.605 10.101-.275 2.02-1.742 3.973-4.615 6.16z" fill="#E91609"/><path fill-rule="evenodd" clip-rule="evenodd" d="M83.198 29.84l-1.716-.726c-6.698-2.852-9.744-4.147-17.479-3.512-1.56.137-3.312.322-5.156.514-5.028.532-13.892 1.45-17.01 1.101-.102-.137-.203-.284-.349-.403l-4.881-3.816c-8.91-6.983-14.415-3.551-20.91 4.716L5.558 40.643C2.393 44.676-.46 49.01.062 53.375c.377 3.057 2.248 5.81 4.082 7.24l6.974 5.462c1.432 1.138 2.412 2.32 3.111 3.648l2.63-2.765a14.209 14.209 0 00-2.41-2.825l26.22-33.426c2.854.523 8.45.102 18.562-.955 1.825-.183 3.568-.366 5.093-.512 5.109-.425 7.642.008 11.423 1.458l7.45-.86zM34.35 25.875c-6.176-4.832-9.423-3.99-15.772 4.103L8.441 42.905c-3.663 4.66-5.038 7.57-4.736 10.029.24 2.015 1.679 4 3.103 5.119l4.816 3.762 26.112-33.289-3.386-2.651z" fill="#fff"/><path d="M59.161 115.442l5.55 4.332c.642.505 2.231 1.018 3.871 1.018a8.507 8.507 0 003.66-.855c2.689-1.282 4.736-3.887 5.331-6.787a9.2 9.2 0 00.138-1.009 8.584 8.584 0 001.816.211c1.322 0 2.67-.294 3.964-.891 2.991-1.394 5.248-4.267 5.871-7.496a9.86 9.86 0 00.166-2.119 8.469 8.469 0 002.624.412c1.322 0 2.68-.294 3.973-.89 2.98-1.386 5.23-4.266 5.871-7.497.111-.56.157-1.119.166-1.668a8.421 8.421 0 003.846.923c1.33 0 2.679-.294 3.963-.89 2.981-1.383 5.239-4.256 5.882-7.494.552-2.826-.183-5.607-1.918-7.573l-3.323 1.854c1.404 1.094 2.037 3.012 1.653 4.99-.422 2.116-1.889 3.987-3.836 4.885-1.844.864-3.854.709-4.561.159L89.684 77.964a1.834 1.834 0 00-2.568.312 1.84 1.84 0 00.311 2.579l9.332 7.304c1.404 1.1 2.036 3.008 1.652 4.99-.421 2.11-1.89 3.982-3.826 4.89-1.853.851-3.872.707-5.265-.394l-9.342-7.304a1.833 1.833 0 00-2.569.314 1.833 1.833 0 00.312 2.568l6.423 5.037c1.394 1.101 2.019 3.009 1.633 4.991-.412 2.098-1.88 3.974-3.826 4.881-1.853.853-3.872.705-5.265-.396h-.01l-6.395-5.019a1.846 1.846 0 00-2.58.312 1.835 1.835 0 00.314 2.57l5.909 4.624a4.78 4.78 0 01.065 2.17c-.377 1.809-1.644 3.434-3.314 4.232-1.55.734-3.21.643-4.358-.249l-4.652-3.641-2.504 2.707z" fill="#fff"/></g><defs><clipPath id="clip0_977_1159"><path fill="#fff" d="M0 0h140v140H0z"/></clipPath></defs></svg>
